src/assets/images/brands/u2.svg

<svg height="140" viewBox="0 0 130 140" width="130" xmlns="http://www.w3.org/2000/svg" xmlns:xlink="http://www.w3.org/1999/xlink"><clipPath id="a"><path clip-rule="evenodd" d="m27.36097 97.478007 1.389143 1.453951 24.891433 10.692868 20.826118.12653 22.561627-9.742763 3.892571-2.222218 9.54653-24.693685-10.437543-42.132011h-71.153449z"/></clipPath><path clip-path="url(#a)" d="m28.738346 31.181541c-.050915.118798-.067886 9.113755-.050915 19.992547l.050915 19.771926h17.056461 17.056466v-19.941642-19.941635h-6.024922-6.024917l-.084862 14.222206c-.084854 13.848831-.101826 14.239174-.407314 14.476776-.492177.356407-8.536721.356407-9.028897 0-.305488-.237602-.32246-.627945-.407314-14.476776l-.084862-14.222206-5.990978-.050911c-4.701134-.033944-6.007946 0-6.058861.169715zm-1.408642 45.449959c-.016971-2.002655 0-3.733757.050913-3.852554.050915-.186691 2.392998-.220635 11.82921-.186691l11.761319.050911v26.984855l-10.607251.084854c-5.838234.050919-10.624223.101838-10.641197.135773-.2376.203659.135775.831612 1.103155 1.748077 7.603281 7.382653 18.074759 12.321389 28.444411 13.40757.950412.10183 1.985679.237603 2.308139.305489l.594002.118805v3.037918l-1.612301-.050919c-2.274192-.067886-5.957035-.627945-8.757351-1.306816-8.061508-1.985679-15.393241-5.719429-21.604848-11.048515-3.47918-2.987-7.942711-7.976654-9.656844-10.827881-.492176-.814636-.543092-.967384-.356403-1.323784.339432-.627952 2.036593-2.511802 2.291166-2.511802.1188 0 .780695.865554 1.4935 1.900817 2.291166 3.445237 3.462208 4.819947 3.784668 4.480515.067888-.067886.169716-1.408646.220633-2.953064l.084856-2.834259 7.518423-.084854c7.212932-.084862 7.535389-.101837 7.772991-.407318.305489-.424294.305489-.967385 0-1.391678-.237602-.305481-.57703-.322457-8.027569-.407318l-7.772993-.084854v-7.637223l7.722082-.084854c4.242901-.050918 7.823906-.152756 7.942711-.220634.271545-.186692.271545-.899498 0-1.086182-.118805-.067894-3.733753-.169716-8.027573-.220634l-7.806936-.084854zm73.283387-5.278175c.441261-1.306809 1.78202-2.494827 3.309463-2.88517.288513-.084854.950409-.10183 1.476532-.067886 2.664536.203659 4.548386 2.409965 4.344727 5.074508-.101822 1.221955-.441262 1.968704-1.306809 2.868202-1.018295 1.086182-1.748077 1.391671-3.411293 1.391671-1.527443 0-2.426941-.305489-3.122772-1.086182-.390358-.424286-.865563-.458237-1.018295-.084854-.135781.356399-.135781 21.078735 0 21.587875.067878.23761.220626.373383.373367.339432.373375-.067886 2.393005-2.613625 3.937416-4.972679.74675-1.120125 1.4935-2.223274 1.697159-2.460884l.339432-.424286 1.103157 1.188011c.594001.64492 1.103149 1.306816 1.103149 1.442589 0 .373375-1.985672 3.326431-3.53009 5.2612-4.259873 5.295135-8.859177 9.317406-14.51072 12.694755-2.800316 1.680191-4.718109 2.613625-7.756027 3.818612-4.650215 1.832931-10.759994 3.190658-15.189583 3.377349l-1.188019.050919.050919-1.442589c.050919-.984352.135773-1.510475.305489-1.62928.118797-.101822.882522-.237595 1.663215-.305481 1.866875-.135773 5.600632-.831612 8.078484-1.476532 5.90612-1.561386 12.253502-4.76902 17.446815-8.79129 2.953057-2.308136 5.312111-4.769028 4.921761-5.142395-.033943-.033951-5.125427-.084862-11.337029-.135773l-11.286125-.084862v-26.815139l11.387947-.084855c8.689461-.067886 11.438866-.135772 11.642525-.288513.135773-.118805.3564-.526123.475205-.916473zm-42.106549 33.196464c-.067886-1.765045-.050915-3.17369.050915-3.360382.135773-.254577.441261-.288513 2.851227-.288513 2.545742 0 2.715462.016968 2.885177.3564.237595.424293.152741 6.177665-.084861 6.3983-.10183.084854-1.323784.118797-2.885174.050911l-2.715458-.10183zm6.652867-3.326438c-.288514.54309-.237603 5.651542.050918 6.05886.220627.305497.424286.322464 2.936089.271546 2.223274-.050911 2.715454-.101822 2.902137-.339432.288521-.390343.288521-5.6176-.016967-6.041885-.169716-.220635-.407318-.288514-1.052239-.23761l-.848579.050918-.084862 2.172364c-.067886 1.900817-.118797 2.206314-.407318 2.42694-.186684.135773-.424286.237603-.526115.237603-.101838 0-.33944-.10183-.526124-.237603-.28852-.220626-.339431-.526123-.407318-2.42694l-.084854-2.172364-.88253-.050918c-.729774-.050904-.916466 0-1.052238.288521zm7.78997 6.262519c-1.1371.084862-1.188019-.067886-1.188019-3.241577 0-1.54441.067894-2.834251.169724-3.020942.169708-.305489.356399-.322457 2.936081-.288521l2.749397.050918.033951 2.885178c.016967 1.578354.067886 3.037918.084854 3.224602.033943.271545-.067887.356407-.560059.390342-.560066.050919-.627952 0-.916466-.627945-.237609-.560058-.407318-.712806-.88253-.797668-.814636-.152741-1.357727.135773-1.54441.814636-.118805.509155-.20366.560066-.882523.610977zm-22.674068-6.347374c-.050915.135773-.067887.526116-.033944.882515l.050919.661896.967377.084862c.526119.050911 1.069217.186684 1.188015.305488.152748.152741.254573.916466.305488 2.291169l.084862 2.070533h2.206306l.084858-2.070533c.050916-1.3747.152746-2.138423.305489-2.291169.118801-.118804.64492-.254577 1.188011-.305488.865555-.067886.984352-.135773 1.120129-.543091.118797-.305489.101825-.594009-.033943-.899498l-.203663-.424286h-3.564034c-2.902149 0-3.59798.050911-3.66587.237602zm12.321388 3.071862c0-.712815-.084858-1.018296-.339432-1.272873-.186687-.186692-.560066-.339432-.848583-.339432-.814636 0-1.188008.509148-1.188008 1.612305 0 1.103149.373372 1.612297 1.188008 1.612297s1.188015-.509148 1.188015-1.612297zm13.068134-.59401c0-.186691-.152748-.492172-.339432-.678863-.186683-.186692-.458236-.339432-.594001-.339432-.373383 0-.933449.627945-.933449 1.018295 0 .390351.560066 1.018296.933449 1.018296.373374 0 .933433-.627945.933433-1.018296zm-22.996525-31.024093c-.050915.118805-.016971 6.177658.050915 13.45848l.118805 13.237854h22.741943v-16.971603l-7.603271-.084854c-7.280823-.084862-7.620255-.101837-7.857857-.407326-.305489-.424286-.305489-.627952 0-1.052238.237602-.305489.560062-.322464 7.772995-.407318l7.518417-.084854v-7.806939l-11.337028-.050918c-8.977982-.033943-11.354004 0-11.404919.169716zm16.038166 16.598228c.271546.271546.339432.560066.339432 1.357735 0 .029342.000023.058182.000046.086525.000458.537048.000763.895088-.167877 1.133781-.337311.477417-1.350533.47728-4.390564.476875-.091011-.000015-.183838-.000022-.278511-.000022-.094674 0-.1875.000007-.278508.000022-3.04002.000405-4.053253.000542-4.390567-.476875-.168637-.238693-.168335-.596733-.167881-1.133781.000026-.028343.000049-.057183.000049-.086525 0-.029351-.000023-.05819-.000049-.086533-.000454-.537048-.000756-.895096.167881-1.133781.337318-.477425 1.350551-.477288 4.390567-.476876.091008.000016.183834.000023.278508.000023 3.937416 0 4.175018.016976 4.497474.339432zm24.43911-3.479179c0-5.464859-.016968-5.702454-.339432-6.024918-.322456-.322464-.560066-.339432-4.158043-.339432-3.597976 0-3.835578.016968-4.158042.339432s-.339432.560059-.339432 6.024918.016968 5.702461.339432 6.024917c.322464.322464.560066.339432 4.158042.339432 3.597977 0 3.835587-.016968 4.158043-.339432.322464-.322456.339432-.560058.339432-6.024917zm12.542023-10.420563c2.002647-.594009 2.206306-3.411293.322456-4.259872-.407318-.186692-.848579-.339432-.984352-.339432s-.577034.15274-.984352.339432c-.577034.25457-.797669.492172-1.086182 1.120124-.288521.678864-.322464.899498-.152748 1.425614.424286 1.425621 1.578362 2.104477 2.885178 1.714134zm-39.662644-38.457657c-.016975-2.986999 0-5.532745.050919-5.634567.050911-.186691 3.445229-.220635 16.750969-.186691l16.683082.050911v24.948257l-10.573303.084862c-1.06369.008865-2.026047.015411-2.896652.021339-6.3022.042885-7.796257.053055-8.117134.671715-.099709.192238-.086136.44323-.068344.772209.007904.146187.01664.307785.01664.486466 0 .17868-.008736.340278-.01664.486465-.017792.328987-.031365.579979.068344.772217.320877.618667 1.814964.628837 8.11731.671722.870552.005928 1.832855.012474 2.896476.02134l10.573303.084846v10.861839h-33.434051v-25.117981l10.658165-.084854c8.976463-.074905 10.78025-.002876 11.106598-.662162.081802-.165261.07077-.376473.05661-.647545-.006142-.117531-.012871-.246308-.012871-.387459 0-.141152.006729-.269928.012871-.387459.01416-.271065.025192-.482277-.05661-.647537-.32634-.659294-2.130127-.587258-11.106598-.662163l-10.658165-.084862z"/></svg>

<?xml version="1.0" encoding="UTF-8"?>
<!-- Generated by Pixelmator Pro 3.6.14 -->
<svg width="130" height="140" viewBox="0 0 130 140" xmlns="http://www.w3.org/2000/svg">
    <clipPath id="clipPath1">
        <path clip-rule="evenodd" d="M 27.36097 97.478007 L 28.750113 98.931958 L 53.641546 109.624826 L 74.467664 109.751356 L 97.029291 100.008593 L 100.921862 97.786375 L 110.468392 73.09269 L 100.030849 30.960679 L 28.8774 30.960679 L 27.36097 97.478007 Z"/>
    </clipPath>
    <path id="Path-copy" fill="#000000" stroke="none" clip-path="url(#clipPath1)" d="M 28.738346 31.181541 C 28.687431 31.300339 28.67046 40.295296 28.687431 51.174088 L 28.738346 70.946014 L 45.794807 70.946014 L 62.851273 70.946014 L 62.851273 51.004372 L 62.851273 31.062737 L 56.826351 31.062737 L 50.801434 31.062737 L 50.716572 45.284943 C 50.631718 59.133774 50.614746 59.524117 50.309258 59.761719 C 49.817081 60.118126 41.772537 60.118126 41.280361 59.761719 C 40.974873 59.524117 40.957901 59.133774 40.873047 45.284943 L 40.788185 31.062737 L 34.797207 31.011826 C 30.096073 30.977882 28.789261 31.011826 28.738346 31.181541 Z M 27.329704 76.6315 C 27.312733 74.628845 27.329704 72.897743 27.380617 72.778946 C 27.431532 72.592255 29.773615 72.558311 39.209827 72.592255 L 50.971146 72.643166 L 50.971146 99.628021 L 40.363895 99.712875 C 34.525661 99.763794 29.739672 99.814713 29.722698 99.848648 C 29.485098 100.052307 29.858473 100.68026 30.825853 101.596725 C 38.429134 108.979378 48.900612 113.918114 59.270264 115.004295 C 60.220676 115.106125 61.255943 115.241898 61.578403 115.309784 L 62.172405 115.428589 L 62.172405 118.466507 L 60.560104 118.415588 C 58.285912 118.347702 54.603069 117.787643 51.802753 117.108772 C 43.741245 115.123093 36.409512 111.389343 30.197905 106.060257 C 26.718725 103.073257 22.255194 98.083603 20.541061 95.232376 C 20.048885 94.41774 19.997969 94.264992 20.184658 93.908592 C 20.52409 93.28064 22.221251 91.39679 22.475824 91.39679 C 22.594624 91.39679 23.256519 92.262344 23.969324 93.297607 C 26.26049 96.742844 27.431532 98.117554 27.753992 97.778122 C 27.82188 97.710236 27.923708 96.369476 27.974625 94.825058 L 28.059481 91.990799 L 35.577904 91.905945 C 42.790836 91.821083 43.113293 91.804108 43.350895 91.498627 C 43.656384 91.074333 43.656384 90.531242 43.350895 90.106949 C 43.113293 89.801468 42.773865 89.784492 35.323326 89.699631 L 27.550333 89.614777 L 27.550333 81.977554 L 35.272415 81.8927 C 39.515316 81.841782 43.096321 81.739944 43.215126 81.672066 C 43.486671 81.485374 43.486671 80.772568 43.215126 80.585884 C 43.096321 80.51799 39.481373 80.416168 35.187553 80.36525 L 27.380617 80.280396 L 27.329704 76.6315 Z M 100.613091 71.353325 C 101.054352 70.046516 102.395111 68.858498 103.922554 68.468155 C 104.211067 68.383301 104.872963 68.366325 105.399086 68.400269 C 108.063622 68.603928 109.947472 70.810234 109.743813 73.474777 C 109.641991 74.696732 109.302551 75.443481 108.437004 76.342979 C 107.418709 77.429161 106.688927 77.73465 105.025711 77.73465 C 103.498268 77.73465 102.59877 77.429161 101.902939 76.648468 C 101.512581 76.224182 101.037376 76.190231 100.884644 76.563614 C 100.748863 76.920013 100.748863 97.642349 100.884644 98.151489 C 100.952522 98.389099 101.10527 98.524872 101.258011 98.490921 C 101.631386 98.423035 103.651016 95.877296 105.195427 93.518242 C 105.942177 92.398117 106.688927 91.294968 106.892586 91.057358 L 107.232018 90.633072 L 108.335175 91.821083 C 108.929176 92.466003 109.438324 93.127899 109.438324 93.263672 C 109.438324 93.637047 107.452652 96.590103 105.908234 98.524872 C 101.648361 103.820007 97.049057 107.842278 91.397514 111.219627 C 88.597198 112.899818 86.679405 113.833252 83.641487 115.038239 C 78.991272 116.87117 72.881493 118.228897 68.451904 118.415588 L 67.263885 118.466507 L 67.314804 117.023918 C 67.365723 116.039566 67.450577 115.513443 67.620293 115.394638 C 67.73909 115.292816 68.502815 115.157043 69.283508 115.089157 C 71.150383 114.953384 74.88414 114.257545 77.361992 113.612625 C 83.268112 112.051239 89.615494 108.843605 94.808807 104.821335 C 97.761864 102.513199 100.120918 100.052307 99.730568 99.67894 C 99.696625 99.644989 94.605141 99.594078 88.393539 99.543167 L 77.107414 99.458305 L 77.107414 72.643166 L 88.495361 72.558311 C 97.184822 72.490425 99.934227 72.422539 100.137886 72.269798 C 100.273659 72.150993 100.494286 71.743675 100.613091 71.353325 Z M 58.506542 104.549789 C 58.438656 102.784744 58.455627 101.376099 58.557457 101.189407 C 58.69323 100.93483 58.998718 100.900894 61.408684 100.900894 C 63.954426 100.900894 64.124146 100.917862 64.293861 101.257294 C 64.531456 101.681587 64.446602 107.434959 64.209 107.655594 C 64.10717 107.740448 62.885216 107.774391 61.323826 107.706505 L 58.608368 107.604675 L 58.506542 104.549789 Z M 65.159409 101.223351 C 64.870895 101.766441 64.921806 106.874893 65.210327 107.282211 C 65.430954 107.587708 65.634613 107.604675 68.146416 107.553757 C 70.36969 107.502846 70.86187 107.451935 71.048553 107.214325 C 71.337074 106.823982 71.337074 101.596725 71.031586 101.17244 C 70.86187 100.951805 70.624268 100.883926 69.979347 100.93483 L 69.130768 100.985748 L 69.045906 103.158112 C 68.97802 105.058929 68.927109 105.364426 68.638588 105.585052 C 68.451904 105.720825 68.214302 105.822655 68.112473 105.822655 C 68.010635 105.822655 67.773033 105.720825 67.586349 105.585052 C 67.297829 105.364426 67.246918 105.058929 67.179031 103.158112 L 67.094177 100.985748 L 66.211647 100.93483 C 65.481873 100.883926 65.295181 100.93483 65.159409 101.223351 Z M 72.949379 107.48587 C 71.812279 107.570732 71.76136 107.417984 71.76136 104.244293 C 71.76136 102.699883 71.829254 101.410042 71.931084 101.223351 C 72.100792 100.917862 72.287483 100.900894 74.867165 100.93483 L 77.616562 100.985748 L 77.650513 103.870926 C 77.66748 105.44928 77.718399 106.908844 77.735367 107.095528 C 77.76931 107.367073 77.66748 107.451935 77.175308 107.48587 C 76.615242 107.536789 76.547356 107.48587 76.258842 106.857925 C 76.021233 106.297867 75.851524 106.145119 75.376312 106.060257 C 74.561676 105.907516 74.018585 106.19603 73.831902 106.874893 C 73.713097 107.384048 73.628242 107.434959 72.949379 107.48587 Z M 50.275311 101.138496 C 50.224396 101.274269 50.207424 101.664612 50.241367 102.021011 L 50.292286 102.682907 L 51.259663 102.767769 C 51.785782 102.81868 52.32888 102.954453 52.447678 103.073257 C 52.600426 103.225998 52.702251 103.989723 52.753166 105.364426 L 52.838028 107.434959 L 55.044334 107.434959 L 55.129192 105.364426 C 55.180108 103.989726 55.281938 103.226003 55.434681 103.073257 C 55.553482 102.954453 56.079601 102.81868 56.622692 102.767769 C 57.488247 102.699883 57.607044 102.631996 57.742821 102.224678 C 57.861618 101.919189 57.844646 101.630669 57.708878 101.32518 L 57.505215 100.900894 L 53.941181 100.900894 C 51.039032 100.900894 50.343201 100.951805 50.275311 101.138496 Z M 62.596699 104.210358 C 62.596699 103.497543 62.511841 103.192062 62.257267 102.937485 C 62.07058 102.750793 61.697201 102.598053 61.408684 102.598053 C 60.594048 102.598053 60.220676 103.107201 60.220676 104.210358 C 60.220676 105.313507 60.594048 105.822655 61.408684 105.822655 C 62.22332 105.822655 62.596699 105.313507 62.596699 104.210358 Z M 75.664833 103.616348 C 75.664833 103.429657 75.512085 103.124176 75.325401 102.937485 C 75.138718 102.750793 74.867165 102.598053 74.7314 102.598053 C 74.358017 102.598053 73.797951 103.225998 73.797951 103.616348 C 73.797951 104.006699 74.358017 104.634644 74.7314 104.634644 C 75.104774 104.634644 75.664833 104.006699 75.664833 103.616348 Z M 52.668308 72.592255 C 52.617393 72.71106 52.651337 78.769913 52.719223 86.050735 L 52.838028 99.288589 L 75.579971 99.288589 L 75.579971 82.316986 L 67.9767 82.232132 C 60.695877 82.14727 60.356445 82.130295 60.118843 81.824806 C 59.813354 81.40052 59.813354 81.196854 60.118843 80.772568 C 60.356445 80.467079 60.678905 80.450104 67.891838 80.36525 L 75.410255 80.280396 L 75.410255 72.473457 L 64.073227 72.422539 C 55.095245 72.388596 52.719223 72.422539 52.668308 72.592255 Z M 68.706474 89.190483 C 68.97802 89.462029 69.045906 89.750549 69.045906 90.548218 C 69.045906 90.57756 69.045929 90.6064 69.045952 90.634743 C 69.04641 91.171791 69.046715 91.529831 68.878075 91.768524 C 68.540764 92.245941 67.527542 92.245804 64.487511 92.245399 C 64.3965 92.245384 64.303673 92.245377 64.209 92.245377 C 64.114326 92.245377 64.0215 92.245384 63.930492 92.245399 C 60.890472 92.245804 59.877239 92.245941 59.539925 91.768524 C 59.371288 91.529831 59.37159 91.171791 59.372044 90.634743 C 59.37207 90.6064 59.372093 90.57756 59.372093 90.548218 C 59.372093 90.518867 59.37207 90.490028 59.372044 90.461685 C 59.37159 89.924637 59.371288 89.566589 59.539925 89.327904 C 59.877243 88.850479 60.890476 88.850616 63.930492 88.851028 C 64.0215 88.851044 64.114326 88.851051 64.209 88.851051 C 68.146416 88.851051 68.384018 88.868027 68.706474 89.190483 Z M 93.145584 85.711304 C 93.145584 80.246445 93.128616 80.00885 92.806152 79.686386 C 92.483696 79.363922 92.246086 79.346954 88.648109 79.346954 C 85.050133 79.346954 84.812531 79.363922 84.490067 79.686386 C 84.167603 80.00885 84.150635 80.246445 84.150635 85.711304 C 84.150635 91.176163 84.167603 91.413765 84.490067 91.736221 C 84.812531 92.058685 85.050133 92.075653 88.648109 92.075653 C 92.246086 92.075653 92.483696 92.058685 92.806152 91.736221 C 93.128616 91.413765 93.145584 91.176163 93.145584 85.711304 Z M 105.687607 75.290741 C 107.690254 74.696732 107.893913 71.879448 106.010063 71.030869 C 105.602745 70.844177 105.161484 70.691437 105.025711 70.691437 C 104.889938 70.691437 104.448677 70.844177 104.041359 71.030869 C 103.464325 71.285439 103.24369 71.523041 102.955177 72.150993 C 102.666656 72.829857 102.632713 73.050491 102.802429 73.576607 C 103.226715 75.002228 104.380791 75.681084 105.687607 75.290741 Z M 66.024963 36.833084 C 66.007988 33.846085 66.024963 31.300339 66.075882 31.198517 C 66.126793 31.011826 69.521111 30.977882 82.826851 31.011826 L 99.509933 31.062737 L 99.509933 56.010994 L 88.93663 56.095856 C 87.87294 56.104721 86.910583 56.111267 86.039978 56.117195 C 79.737778 56.16008 78.243721 56.17025 77.922844 56.78891 C 77.823135 56.981148 77.836708 57.23214 77.8545 57.561119 C 77.862404 57.707306 77.87114 57.868904 77.87114 58.047585 C 77.87114 58.226265 77.862404 58.387863 77.8545 58.53405 C 77.836708 58.863037 77.823135 59.114029 77.922844 59.306267 C 78.243721 59.924934 79.737808 59.935104 86.040154 59.977989 C 86.910706 59.983917 87.873009 59.990463 88.93663 59.999329 L 99.509933 60.084175 L 99.509933 70.946014 L 66.075882 70.946014 L 66.075882 45.828033 L 76.734047 45.743179 C 85.71051 45.668274 87.514297 45.740303 87.840645 45.081017 C 87.922447 44.915756 87.911415 44.704544 87.897255 44.433472 C 87.891113 44.315941 87.884384 44.187164 87.884384 44.046013 C 87.884384 43.904861 87.891113 43.776085 87.897255 43.658554 C 87.911415 43.387489 87.922447 43.176277 87.840645 43.011017 C 87.514305 42.351723 85.710518 42.423759 76.734047 42.348854 L 66.075882 42.263992 L 66.024963 36.833084 Z"/>
</svg>
